X: 25613
T: Marquis Of Tullybardine, The
R: reel
M: 4/4
K: Amajor
|:A2 Ac eAAf|eAAe fedc|Bcde fBBf|bBfa fefa|
A2 Ac eAAf|eAAe fedc|defa fedf|1 ecBA fefa:|2 ecBA fefg||
|:aA ~A2 eAAe|aAAa fedc|bB ~B2 dBBf|bBfa fefg|
aA ~A2 eAAe|aAAa fedc|defa fecf|1 ecBA fefg:|2 ecBA fefa||

